X: 23360
T: Leitrim Lasses, The
R: reel
M: 4/4
K: Adorian
eABA edBd|dega bgag|eA~A2 edBc|dged BAAd|
eA~A2 edBd|dega bgag|eA~A2 edBc|dged BAA2:|
e2ag ~a2ba|gede gabg|eaag a2ba|gedB {c}BAA2|
eaag ~a2ba|gede gabg|e2ag agef|gedB {c}BAA2:|

